frontend/public/assets/material-icons/folder-images.svg

<svg xmlns="http://www.w3.org/2000/svg" viewBox="0 0 32 32">
  <path d="M13.84376,7.53645l-1.28749-1.0729A2,2,0,0,0,11.27591,6H4A2,2,0,0,0,2,8V24a2,2,0,0,0,2,2H28a2,2,0,0,0,2-2V10a2,2,0,0,0-2-2H15.12412A2,2,0,0,1,13.84376,7.53645Z" style="fill: #009688"/>
  <path d="M24,10H17a1,1,0,0,0-1,1V27a1,1,0,0,0,1,1H29a1,1,0,0,0,1-1V16Zm-4,6a2,2,0,1,1-2,2A2.01067,2.01067,0,0,1,20,16Zm8,10H18l4-4,2,2,4-4Zm-4.82843-9.17157V12L28,16.82843Z" style="fill: #b2dfdb"/>
</svg>

<svg xmlns="http://www.w3.org/2000/svg" viewBox="0 0 32 32"><path fill="#009688" d="m13.844 7.536-1.288-1.072A2 2 0 0 0 11.276 6H4a2 2 0 0 0-2 2v16a2 2 0 0 0 2 2h24a2 2 0 0 0 2-2V10a2 2 0 0 0-2-2H15.124a2 2 0 0 1-1.28-.464"/><path fill="#b2dfdb" d="M24 10h-7a1 1 0 0 0-1 1v16a1 1 0 0 0 1 1h12a1 1 0 0 0 1-1V16Zm-4 6a2 2 0 1 1-2 2 2.01 2.01 0 0 1 2-2m8 10H18l4-4 2 2 4-4Zm-4.828-9.172V12L28 16.828Z"/></svg>
